X:1
T:Miss McPherson Grant of Ballindalloch
T:Miss McPherson Grant of Ballindalloch
T:The Nurseryman
T:William Marshall
C:William Marshall
L:1/8
M:6/8
K:A
V:1 treble 
V:1
 E |"A" E2 A A2 F |"E7" GAB Bcd |"A" c2 E"F#m" AGA |"Bm" B3"E7" E3 |"A" E2 e e2 c | %6
"Bm" dcd"E7" Bcd |"A" cde"D" fed |"A" cBA"E7" GFE |"A" E2 A A2 F |"E7" GAB Bcd |"A" c2 E"F#m" AGA | %12
"Bm" B3"E7" E3 |"A" E2 e e2 c |"Bm" dcd"E7" Bcd |"A" cBA"E7" EFG |"A" A3- A2 |] E | %18
"A" C2 E"A7" A2 =G |"D" FEF D2 F |"Bm" d2 c"B7" BcA |"E" G3 E2 E |"D" FGA Bcd |"A" cde fga | %24
"E" gfe"B7" Bc^d |"E" e3- e2 z |"D" f2 [DA] fed |"A" e2 [Ac] ecA |"D" FGA"B7" BcA |"E" G3 E3 | %30
"D" F2 d"A" E2 c |"E7" D2 B"A" C2 e |"A" cBA"E7" EFG |"A" A3- A2 |] %34

